Sources/FrostedUI/Resources/Icons.xcassets/pinTilted16.imageset/pin-tilted-16.svg

<svg width="16" height="16" viewBox="0 0 16 16" fill="none" xmlns="http://www.w3.org/2000/svg" data-fui-icon="true">
  <path
    d="M8.54077 1.83362C9.34131 1.03323 10.6396 1.03323 11.4402 1.83362L14.198 4.59143C14.9982 5.39189 14.9981 6.68935 14.198 7.48987L12.0554 9.63245C11.9539 9.7342 11.8806 9.8617 11.8435 10.0006L11.1199 12.7174C10.7129 14.2432 8.80584 14.7549 7.68921 13.6383L5.57104 11.5211L3.27319 13.819C2.98038 14.1118 2.50556 14.1116 2.21265 13.819C1.91975 13.5261 1.91975 13.0513 2.21265 12.7584L4.5105 10.4606L2.39233 8.34241C1.2758 7.22585 1.78769 5.31887 3.31323 4.91174L6.03101 4.18713C6.16996 4.15004 6.29743 4.07686 6.39917 3.97522L8.54077 1.83362ZM10.3787 2.89417C10.1639 2.67973 9.81601 2.67962 9.60132 2.89417L7.45972 5.03577C7.17133 5.32404 6.81172 5.53127 6.41772 5.63635L3.69995 6.36096C3.291 6.47044 3.15345 6.9824 3.45288 7.28186L8.74976 12.5778C9.04917 12.8772 9.56011 12.7405 9.66968 12.3317L10.3953 9.61389C10.5003 9.21997 10.7067 8.86027 10.9949 8.5719L13.1375 6.42932C13.3517 6.21459 13.3518 5.86665 13.1375 5.65198L10.3787 2.89417Z"
    fill="currentColor"
  />
</svg>

<svg xmlns="http://www.w3.org/2000/svg" width="16" height="16" fill="none" data-fui-icon="true" viewBox="0 0 16 16"><path fill="currentColor" d="M8.54 1.834c.801-.8 2.1-.8 2.9 0l2.758 2.757c.8.8.8 2.098 0 2.899l-2.143 2.142a.8.8 0 0 0-.211.369l-.724 2.716c-.407 1.526-2.314 2.038-3.43.921L5.57 11.521 3.273 13.82a.75.75 0 0 1-1.06-1.06L4.51 10.46 2.392 8.342c-1.116-1.116-.604-3.023.921-3.43l2.718-.725a.8.8 0 0 0 .368-.212zm1.839 1.06a.55.55 0 0 0-.778 0L7.46 5.036a2.3 2.3 0 0 1-1.042.6L3.7 6.361a.55.55 0 0 0-.247.92l5.297 5.297c.3.3.81.163.92-.246l.725-2.718c.105-.394.312-.754.6-1.042l2.143-2.143a.55.55 0 0 0 0-.777z"/></svg>
